src/next/cmd/32/setminimalrowheight.svg

<svg height="32" width="32" xmlns="http://www.w3.org/2000/svg" xmlns:xlink="http://www.w3.org/1999/xlink"><linearGradient id="a" gradientUnits="userSpaceOnUse" x1="42" x2="72.138878" y1="118.03125" y2="5.551427"><stop offset="0" stop-color="#084775"/><stop offset="1" stop-color="#084775" stop-opacity="0"/></linearGradient><linearGradient id="b"><stop offset="0" stop-color="#828282"/><stop offset="1" stop-color="#828282" stop-opacity="0"/></linearGradient><linearGradient id="c" gradientTransform="matrix(1.0384874 0 0 1.2391614 2.461539 4.865601)" gradientUnits="userSpaceOnUse" x1="46.048" x2="46.048" y1="128.01709" y2="16.6203"><stop offset="0" stop-color="#c7cdd7"/><stop offset="1" stop-color="#fff"/></linearGradient><clipPath id="d"><path d="m-23.029324-146.61201c-5.531616-.24083-10.64527 3.53552-12 8.96875-.000021.0104-.000021.0208 0 .0312l-2.8125 11.40625h-6.03125c-6.441349 0-11.84375 5.4024-11.84375 11.84375v8c0 5.84595 4.517586 10.626564 10.15625 11.5l-4.125 16.65625h-6.1875c-6.441349 0-11.84375 5.402402-11.84375 11.84375v8c0 5.890458 4.58168 10.71459 10.28125 11.53125l-.84375 3.4375c-1.553679 6.23113 2.382454 12.78725 8.625 14.34375l7.78125 1.9375c6.231123 1.55368 12.818494-2.3825 14.375-8.625.000021-.01042.000021-.02083 0-.03125l2.65625-10.75h14.65625l-.78125 3.125c-1.553681 6.23114 2.382455 12.78725 8.625 14.34375l7.78125 1.9375c6.213771 1.54936 12.804599-2.45209 14.34375-8.625.000021-.01042.000021-.02083 0-.03125l2.65625-10.75h9.6875c6.44135 0 11.84375-5.402396 11.84375-11.84375v-8c0-6.441353-5.4024-11.84375-11.84375-11.84375h-1.875l4.03125-16.3125h9.84375c6.44135 0 11.84375-5.402396 11.84375-11.84375v-8c0-6.44135-5.4024-11.84375-11.84375-11.84375h-2.03125l.9375-3.78125c1.55369-6.23115-2.3825-12.78724-8.625-14.34375l-7.78125-1.9375c-6.231121-1.55367-12.818487 2.38251-14.375 8.625-.000021.0104-.000021.0208 0 .0312l-2.8125 11.40625h-14.625l.9375-3.78125c1.571025-6.30072-2.431097-12.79157-8.65625-14.34375l-7.75-1.9375c-.677154-.16884-1.43324-.30275-2.375-.34375zm10.03125 52.09375h14.625l-4.03125 16.3125h-14.625z"/></clipPath><filter id="e"><feGaussianBlur stdDeviation="1.2346784"/></filter><linearGradient id="f" gradientTransform="matrix(.6442951 0 0 1 32.724854 0)" gradientUnits="userSpaceOnUse" x1="92.000008" x2="129.25002" y1="69.875" y2="69.875"><stop offset="0" stop-color="#fff"/><stop offset="1" stop-color="#fff" stop-opacity="0"/></linearGradient><mask id="g" maskUnits="userSpaceOnUse"><path d="m3.750004 11.249995h112.249986v117.250015h-112.249986z" fill="url(#f)"/></mask><mask id="h" maskUnits="userSpaceOnUse"><path d="m7.000004 11.249995h105.249986v117.250015h-105.249986z" fill="url(#f)"/></mask><linearGradient id="i" gradientUnits="userSpaceOnUse" x1="124" x2="124" y1="-32.325989" y2="104.05867"><stop offset="0" stop-color="#fff"/><stop offset="1" stop-color="#555"/></linearGradient><linearGradient id="j" gradientUnits="userSpaceOnUse" x1="96" x2="116" xlink:href="#b" y1="74" y2="74"/><linearGradient id="k" gradientUnits="userSpaceOnUse" x1="96" x2="116" xlink:href="#b" y1="54" y2="54"/><g transform="scale(.25)"><path d="m8 28h108v76h-108z" fill="url(#c)" mask="url(#h)" transform="matrix(1 0 0 .20773629 4 50.395426)"/><text x="552.36987" y="202.81038"><tspan fill="#555" x="552.36987" y="219.61037"/></text><text x="284.18808" y="202.81038"><tspan fill="#555" x="284.18808" y="219.61037"/></text><text x="-10.252362" y="133.87732"><tspan fill="#555" x="-10.252362" y="150.67731"/></text><text x="161.66467" y="-39.856026"><tspan fill="#555" x="161.66467" y="-23.056038"/></text><path clip-path="url(#d)" d="m22.5 42.5-2.25 15.5 14-11.75zm21.75.5 12 14.625 11-.125 17.25-12.75zm50 2 9.25 12.375h6l4.5-11.375zm-83.5 46.75-2.25 13.375 14.5-10.875zm91 1.25-18 1 7.75 11.375 7.25-.5zm-31 .5-34.5.25 8.75 12.8125 10.3125-.9375z" fill="url(#a)" fill-rule="evenodd" filter="url(#e)" transform="translate(118.47918 -240.81844)"/><path clip-path="url(#d)" d="m22.5 42.5-8.662305 12.749263 6.412305 2.750737 14-11.75zm71.75 2.5 9.25 12.375 18.02082 1.06066-7.52082-12.43566zm-83.5 46.75-10.20495127 12.66789 22.45495127-10.16789zm91 1.25-18 1 7.75 11.375 17.14949.38388z" fill="url(#a)" fill-rule="evenodd" filter="url(#e)" opacity=".450495" transform="translate(118.47918 -240.81844)"/><text x="580.14136" y="354.79312"><tspan fill="#555" x="580.14136" y="371.59311"/></text><text x="311.95953" y="354.79312"><tspan fill="#555" x="311.95953" y="371.59311"/></text><text x="17.519104" y="285.86008"><tspan fill="#555" x="17.519104" y="302.66006"/></text><text x="189.43614" y="112.12672"><tspan fill="#555" x="189.43614" y="128.92671"/></text><path d="m96 72h20v4h-20z" fill="url(#j)"/><path d="m96 52h20v4h-20z" fill="url(#k)"/><path d="m8 44v4 16 4h4 24 4 24 4 24 4v-4-16-4h-4-24-4-24-4-24zm4 4h24v16h-24zm28 0h24v16h-24zm28 0h24v16h-24z" fill="url(#i)" mask="url(#g)" transform="translate(0 8)"/></g></svg>

<?xml version="1.0" encoding="UTF-8" standalone="no"?>
<svg
   xmlns:dc="http://purl.org/dc/elements/1.1/"
   xmlns:cc="http://creativecommons.org/ns#"
   xmlns:rdf="http://www.w3.org/1999/02/22-rdf-syntax-ns#"
   xmlns:svg="http://www.w3.org/2000/svg"
   xmlns="http://www.w3.org/2000/svg"
   xmlns:xlink="http://www.w3.org/1999/xlink"
   xmlns:sodipodi="http://sodipodi.sourceforge.net/DTD/sodipodi-0.dtd"
   xmlns:inkscape="http://www.inkscape.org/namespaces/inkscape"
   height="32"
   width="32"
   version="1.1"
   id="svg106"
   sodipodi:docname="setminimalrowheight.svg"
   inkscape:version="0.92.3 (2405546, 2018-03-11)"
   inkscape:export-filename="/home/rizmut/Dokumen/Rizmut/Github/libreoffice-style-karasa-jaga/build/next/cmd/32/setminimalrowheight.png"
   inkscape:export-xdpi="96"
   inkscape:export-ydpi="96">
  <metadata
     id="metadata112">
    <rdf:RDF>
      <cc:Work
         rdf:about="">
        <dc:format>image/svg+xml</dc:format>
        <dc:type
           rdf:resource="http://purl.org/dc/dcmitype/StillImage" />
        <dc:title />
      </cc:Work>
    </rdf:RDF>
  </metadata>
  <defs
     id="defs110">
    <linearGradient
       inkscape:collect="always"
       xlink:href="#e"
       id="linearGradient92"
       gradientUnits="userSpaceOnUse"
       x1="42"
       y1="118.03125"
       x2="72.138878"
       y2="5.5514269" />
    <linearGradient
       inkscape:collect="always"
       xlink:href="#e"
       id="linearGradient94"
       gradientUnits="userSpaceOnUse"
       x1="42"
       y1="118.03125"
       x2="72.138878"
       y2="5.5514269" />
  </defs>
  <sodipodi:namedview
     pagecolor="#ffffff"
     bordercolor="#666666"
     borderopacity="1"
     objecttolerance="10"
     gridtolerance="10"
     guidetolerance="10"
     inkscape:pageopacity="0"
     inkscape:pageshadow="2"
     inkscape:window-width="1366"
     inkscape:window-height="714"
     id="namedview108"
     showgrid="true"
     inkscape:zoom="14.75"
     inkscape:cx="6.6599872"
     inkscape:cy="15.352237"
     inkscape:window-x="0"
     inkscape:window-y="28"
     inkscape:window-maximized="1"
     inkscape:current-layer="g90">
    <inkscape:grid
       type="xygrid"
       id="grid62" />
  </sodipodi:namedview>
  <linearGradient
     id="a">
    <stop
       offset="0"
       stop-color="#828282"
       id="stop2" />
    <stop
       offset="1"
       stop-color="#828282"
       stop-opacity="0"
       id="stop4" />
  </linearGradient>
  <linearGradient
     id="b"
     gradientTransform="matrix(1.0384874,0,0,1.2391614,2.461539,4.865601)"
     gradientUnits="userSpaceOnUse"
     x1="46.048"
     x2="46.048"
     y1="128.01709"
     y2="16.6203">
    <stop
       offset="0"
       stop-color="#c7cdd7"
       id="stop7" />
    <stop
       offset="1"
       stop-color="#fff"
       id="stop9" />
  </linearGradient>
  <clipPath
     id="c">
    <path
       d="m -23.029324,-146.61201 c -5.531616,-0.24083 -10.64527,3.53552 -12,8.96875 -2.1e-5,0.0104 -2.1e-5,0.0208 0,0.0312 l -2.8125,11.40625 h -6.03125 c -6.441349,0 -11.84375,5.4024 -11.84375,11.84375 v 8 c 0,5.84595 4.517586,10.626564 10.15625,11.5 l -4.125,16.65625 h -6.1875 c -6.441349,0 -11.84375,5.402402 -11.84375,11.84375 v 8 c 0,5.890458 4.58168,10.71459 10.28125,11.53125 l -0.84375,3.4375 c -1.553679,6.23113 2.382454,12.78725 8.625,14.34375 l 7.78125,1.9375 c 6.231123,1.55368 12.818494,-2.3825 14.375,-8.625 2.1e-5,-0.01042 2.1e-5,-0.02083 0,-0.03125 l 2.65625,-10.75 h 14.65625 l -0.78125,3.125 c -1.553681,6.23114 2.382455,12.78725 8.625,14.34375 l 7.78125,1.9375 c 6.213771,1.54936 12.804599,-2.45209 14.34375,-8.625 2.1e-5,-0.01042 2.1e-5,-0.02083 0,-0.03125 l 2.65625,-10.75 h 9.6875 c 6.44135,0 11.84375,-5.402396 11.84375,-11.84375 v -8 c 0,-6.441353 -5.4024,-11.84375 -11.84375,-11.84375 h -1.875 l 4.03125,-16.3125 h 9.84375 c 6.44135,0 11.84375,-5.402396 11.84375,-11.84375 v -8 c 0,-6.44135 -5.4024,-11.84375 -11.84375,-11.84375 h -2.03125 l 0.9375,-3.78125 c 1.55369,-6.23115 -2.3825,-12.78724 -8.625,-14.34375 l -7.78125,-1.9375 c -6.231121,-1.55367 -12.818487,2.38251 -14.375,8.625 -2.1e-5,0.0104 -2.1e-5,0.0208 0,0.0312 l -2.8125,11.40625 h -14.625 l 0.9375,-3.78125 c 1.571025,-6.30072 -2.431097,-12.79157 -8.65625,-14.34375 l -7.75,-1.9375 c -0.677154,-0.16884 -1.43324,-0.30275 -2.375,-0.34375 z m 10.03125,52.09375 h 14.625 l -4.03125,16.3125 h -14.625 z"
       id="path12"
       inkscape:connector-curvature="0" />
  </clipPath>
  <filter
     id="d">
    <feGaussianBlur
       stdDeviation="1.2346784"
       id="feGaussianBlur15" />
  </filter>
  <linearGradient
     gradientUnits="userSpaceOnUse"
     x1="52.126926"
     x2="52.126926"
     y1="-30.362009"
     y2="-142.43341"
     id="linearGradient22">
    <stop
       offset="0"
       stop-color="#403a3a"
       id="stop18" />
    <stop
       offset="1"
       stop-color="#6a5252"
       id="stop20" />
  </linearGradient>
  <linearGradient
     id="e"
     gradientUnits="userSpaceOnUse"
     x1="42"
     x2="72.138878"
     y1="118.03125"
     y2="5.5514269">
    <stop
       offset="0"
       stop-color="#084775"
       id="stop24" />
    <stop
       offset="1"
       stop-color="#084775"
       stop-opacity="0"
       id="stop26" />
  </linearGradient>
  <linearGradient
     id="f"
     gradientTransform="matrix(0.6442951,0,0,1,32.724854,0)"
     gradientUnits="userSpaceOnUse"
     x1="92.000008"
     x2="129.25002"
     y1="69.875"
     y2="69.875">
    <stop
       offset="0"
       stop-color="#fff"
       id="stop29" />
    <stop
       offset="1"
       stop-color="#fff"
       stop-opacity="0"
       id="stop31" />
  </linearGradient>
  <mask
     id="g"
     maskUnits="userSpaceOnUse">
    <path
       d="M 3.750004,11.249995 H 115.99999 V 128.50001 H 3.750004 Z"
       id="path34"
       inkscape:connector-curvature="0"
       style="fill:url(#f)" />
  </mask>
  <mask
     id="h"
     maskUnits="userSpaceOnUse">
    <path
       d="M 7.000004,11.249995 H 112.24999 V 128.50001 H 7.000004 Z"
       id="path37"
       inkscape:connector-curvature="0"
       style="fill:url(#f)" />
  </mask>
  <linearGradient
     id="i">
    <stop
       offset="0"
       stop-color="#0968ef"
       id="stop40" />
    <stop
       offset="1"
       stop-color="#aecffc"
       id="stop42" />
  </linearGradient>
  <linearGradient
     id="j"
     gradientUnits="userSpaceOnUse"
     x1="124"
     x2="124"
     y1="-32.325989"
     y2="104.05867">
    <stop
       offset="0"
       stop-color="#fff"
       id="stop45" />
    <stop
       offset="1"
       stop-color="#555"
       id="stop47" />
  </linearGradient>
  <linearGradient
     id="k"
     gradientUnits="userSpaceOnUse"
     x1="96"
     x2="116"
     xlink:href="#a"
     y1="74"
     y2="74" />
  <linearGradient
     id="l"
     gradientUnits="userSpaceOnUse"
     x1="96"
     x2="116"
     xlink:href="#a"
     y1="54"
     y2="54" />
  <linearGradient
     id="m"
     gradientTransform="matrix(-0.49928121,0,0,0.49928121,69.8402,48.01725)"
     gradientUnits="userSpaceOnUse"
     x1="113.15723"
     x2="-4.325819"
     xlink:href="#i"
     y1="25.786163"
     y2="24.000002" />
  <linearGradient
     id="n"
     gradientUnits="userSpaceOnUse"
     x1="114.65708"
     x2="60"
     xlink:href="#i"
     y1="60.886047"
     y2="59.988499" />
  <g
     id="g90"
     transform="scale(0.25)">
    <path
       id="path54"
       transform="matrix(1,0,0,0.20773629,4,50.395426)"
       mask="url(#h)"
       d="m 8,28 h 108 v 76 H 8 Z"
       style="fill:url(#b)"
       inkscape:connector-curvature="0" />
    <text
       id="text58"
       y="202.81038"
       x="552.36987">
      <tspan
         id="tspan56"
         y="219.61037"
         x="552.36987"
         style="fill:#555555" />
    </text>
    <text
       id="text64"
       y="202.81038"
       x="284.18808">
      <tspan
         id="tspan62"
         y="219.61037"
         x="284.18808"
         style="fill:#555555" />
    </text>
    <text
       id="text68"
       y="133.87732"
       x="-10.252362">
      <tspan
         id="tspan66"
         y="150.67731"
         x="-10.252362"
         style="fill:#555555" />
    </text>
    <text
       id="text72"
       y="-39.856026"
       x="161.66467">
      <tspan
         id="tspan70"
         y="-23.056038"
         x="161.66467"
         style="fill:#555555" />
    </text>
    <path
       id="path74"
       transform="translate(118.47918,-240.81844)"
       d="m 22.5,42.5 -2.25,15.5 14,-11.75 z m 21.75,0.5 12,14.625 11,-0.125 17.25,-12.75 z m 50,2 9.25,12.375 h 6 L 114,46 Z M 10.75,91.75 8.5,105.125 23,94.25 Z m 91,1.25 -18,1 7.75,11.375 7.25,-0.5 z m -31,0.5 -34.5,0.25 8.75,12.8125 10.3125,-0.9375 z"
       clip-path="url(#c)"
       style="fill:url(#linearGradient92);fill-rule:evenodd;filter:url(#d)"
       inkscape:connector-curvature="0" />
    <path
       id="path76"
       transform="translate(118.47918,-240.81844)"
       d="M 22.5,42.5 13.837695,55.249263 20.25,58 34.25,46.25 Z M 94.25,45 103.5,57.375 121.52082,58.43566 114,46 Z M 10.75,91.75 0.54504873,104.41789 23,94.25 Z m 91,1.25 -18,1 7.75,11.375 17.14949,0.38388 z"
       clip-path="url(#c)"
       style="opacity:0.45049504;fill:url(#linearGradient94);fill-rule:evenodd;filter:url(#d)"
       inkscape:connector-curvature="0" />
    <text
       id="text80"
       y="354.79312"
       x="580.14136">
      <tspan
         id="tspan78"
         y="371.59311"
         x="580.14136"
         style="fill:#555555" />
    </text>
    <text
       id="text84"
       y="354.79312"
       x="311.95953">
      <tspan
         id="tspan82"
         y="371.59311"
         x="311.95953"
         style="fill:#555555" />
    </text>
    <text
       id="text88"
       y="285.86008"
       x="17.519104">
      <tspan
         id="tspan86"
         y="302.66006"
         x="17.519104"
         style="fill:#555555" />
    </text>
    <text
       id="text92"
       y="112.12672"
       x="189.43614">
      <tspan
         id="tspan90"
         y="128.92671"
         x="189.43614"
         style="fill:#555555" />
    </text>
    <path
       id="path94"
       d="m 96,72 h 20 v 4 H 96 Z"
       style="fill:url(#k)"
       inkscape:connector-curvature="0" />
    <path
       id="path96"
       d="m 96,52 h 20 v 4 H 96 Z"
       style="fill:url(#l)"
       inkscape:connector-curvature="0" />
    <path
       id="path98"
       transform="translate(0,8)"
       mask="url(#g)"
       d="m 8,44 v 4 16 4 h 4 24 4 24 4 24 4 V 64 48 44 H 92 68 64 40 36 12 Z m 4,4 H 36 V 64 H 12 Z m 28,0 H 64 V 64 H 40 Z m 28,0 H 92 V 64 H 68 Z"
       style="fill:url(#j)"
       inkscape:connector-curvature="0" />
  </g>
</svg>
